X: 090023
T: Irish Embassy 
N: 041
C: BB
R: reel
Q: 1/8=350
M: 4/4
L: 1/8
K: Ador
"Am"EAcB AGED|"Em"EGAB "G"G2 ED|"Am"EAcB AGED|"G"B,DGB, "Am"A,3 D|
"Am"EAcB AGED|"Em"EGAB "G"G2 ED|"Am"EAcB AGED|"G"GBdB "Am"A4 :|
"Am"eaab agef|"Em"gedc "G"BG (3GFG|"Am"ea(3a^ga "Em"e=g(3gfg|\
"D"fdcB "Am"A2 cd|
"Am"eaab agef|"Em"gedc "G"BG (3GFG|"Am"EAcB AGED|"G"B,DGB, "Am"A,4 :|
